overlays/svg/connection-crescent.svg

<?xml version="1.0" encoding="UTF-8"?>
<svg width="100" height="100" fill="none" viewBox="0 0 100 100" xmlns="http://www.w3.org/2000/svg">
<g clip-path="url(#a)" stroke="#000">
<path d="m50 97.387c26.171 0 47.386-21.216 47.386-47.387s-21.216-47.387-47.386-47.387c-26.171 0-47.387 21.216-47.387 47.387s21.216 47.387 47.387 47.387z" fill="#7C273B" stroke-width="5.2253"/>
<path d="m52.114 33.619c-2.0651-9e-4 -4.1101 0.4223-6.0182 1.2453-1.908 0.823-3.6417 2.0298-5.102 3.5514-1.4602 1.5215-2.6184 3.328-3.4082 5.3162-0.7899 1.9882-1.196 4.1191-1.1952 6.2709 3e-4 2.1511 0.4072 4.2811 1.1975 6.2682 0.7904 1.9872 1.9487 3.7927 3.4089 5.3133 1.4601 1.5207 3.1934 2.7267 5.1009 3.5491 1.9076 0.8225 3.9519 1.2454 6.0163 1.2445 3.1465-0.0087 6.2182-1.0013 8.8173-2.8494-2.4215-1.3521-4.4378-3.3164-5.8434-5.6925-1.4055-2.3761-2.1499-5.079-2.1574-7.8332 0.0085-2.7582 0.7562-5.4647 2.1665-7.8427s3.4327-4.3422 5.8604-5.6917c-2.6065-1.8533-5.688-2.8461-8.8434-2.8494z" fill="#EBDFA1" stroke-linecap="round" stroke-linejoin="round" stroke-width="2.62"/>
</g>
<defs>
<clipPath id="a">
<rect width="100" height="100" fill="#fff"/>
</clipPath>
</defs>
</svg>

<svg width="100" height="100" viewBox="0 0 100 100" fill="none" xmlns="http://www.w3.org/2000/svg">
<g clip-path="url(#clip0_25_15)">
<path d="M50.0002 97.3873C76.171 97.3873 97.3867 76.1713 97.3867 50C97.3867 23.8287 76.171 2.61267 50.0002 2.61267C23.8293 2.61267 2.61365 23.8287 2.61365 50C2.61365 76.1713 23.8293 97.3873 50.0002 97.3873Z" fill="#7C273B" stroke="black" stroke-width="5.22533"/>
<path d="M52.1136 33.6188C50.0485 33.6179 48.0035 34.0411 46.0954 34.8641C44.1874 35.6871 42.4537 36.8939 40.9934 38.4155C39.5332 39.937 38.375 41.7435 37.5852 43.7317C36.7953 45.7199 36.3892 47.8508 36.39 50.0026C36.3903 52.1537 36.7972 54.2837 37.5875 56.2708C38.3779 58.258 39.5362 60.0635 40.9964 61.5841C42.4565 63.1048 44.1898 64.3108 46.0973 65.1332C48.0049 65.9557 50.0492 66.3786 52.1136 66.3777C55.2601 66.369 58.3318 65.3764 60.9309 63.5283C58.5094 62.1762 56.4931 60.2119 55.0875 57.8358C53.682 55.4597 52.9376 52.7568 52.9301 50.0026C52.9386 47.2444 53.6863 44.5379 55.0966 42.1599C56.5069 39.7819 58.5293 37.8177 60.957 36.4682C58.3505 34.6149 55.269 33.6221 52.1136 33.6188Z" fill="#EBDFA1" stroke="black" stroke-width="2.62" stroke-linecap="round" stroke-linejoin="round"/>
</g>
<defs>
<clipPath id="clip0_25_15">
<rect width="100" height="100" fill="white"/>
</clipPath>
</defs>
</svg>
